X: 3
T: Old High
M: 4/4
L: 1/8
R: reel
K: Gmaj
|: BGGG AGDC | B,G,B,C DE=FD |C2 B,C DGGA | BGAG FGAc |
BGGG AGDC | B,G,B,C DE=FD | C2 B,C DGGE | DCB,G B,G, G,2 :|
|:d2 Bd GdBd | d2 Bd GdBd | e2 ce Aece | e2ce EGce |
d2 Bd GdBd | d2 Bd GdBd | ecdB cAGE | DEDC B,G, G,2 :|
